X:1
T:Lost, but Jesus Saved Me
T:Lost, but Jesus Saved Me
T:Edwin Othello Excell
T:Emma Pitt, 1884
T:Public Domain Courtesy of the Cyber Hymnal™
C:Edwin Othello Excell
Z:Public Domain
Z:Courtesy of the Cyber Hymnal™
%%score ( 1 2 ) ( 3 4 )
L:1/8
Q:1/4=95
M:6/8
K:Ab
V:1 treble 
V:2 treble 
V:3 bass 
V:4 bass 
V:1
 [Ec]2 [Ec] ([Ec][DB])[CA] | [CA]3 [B,G]3 | d2 [Gd] [Fd]2 G | ([DF]3 [CE]3) | %4
w: 1.~Lost, but Je- * sus|saved me,|Saved me by His|love; *|
w: 2.~Lost up- on * the|mount- ains|Of life’s woe and|sin; *|
w: 3.~Lost far o’er * the|de- sert,|Know not where to|flee; *|
 [Ec]2 [Ec] ([Ec][DB])[CA] | [CA]3 [B,G]3 | d2 [Gd] [Fd]2 G | [CA]6 | [B,G]2 [B,G] [CA]2 [CA] | %9
w: Lost, but now * He|keeps me|For my rest a-|bove;|Lost, but Je- sus|
w: Lost, but His * free|par- don|Safe- ly took me|in;|Lost, but Je- sus|
w: Lost, but Je- * sus|loved me,|Kind- ly pi- tied|me;|Lost, but Je- sus|
 ([DB]2 [CA]) [B,G]3 | [CA]2 [CA] [DB]2 [=D=B] | [Ec]6 | [Ec]2 [Ec] ([Ec][DB])[CA] | [CA]3 [B,G]3 | %14
w: found * me,|In the de- sert|wild;|Lost, but He * re-|deemed me,|
w: bought * me,|Bought me with His|blood;|Lost, but Je- * sus|keeps me|
w: brought * me,|Out in- to the|light;|Lost, but still * He|saves me,|
 d2 [Gd] [Fd]2 G | [CA]6 |] %16
w: Owns me for His|child.|
w: In the nar- row|road.|
w: Guards me with His|might.|
V:2
 x6 | x6 | (BA) x2 (E/D/) x | x6 | x6 | x6 | (BA) x2 (E/D/) x | x6 | x6 | x6 | x6 | x6 | x6 | x6 | %14
 (BA) x2 (E/D/) x | x6 |] %16
V:3
 [A,,A,]2 [A,,A,] [A,,A,]2 [A,,A,] | E,3 E,3 | E,2 E, E,2 E, | [A,,A,]6 | %4
 [A,,A,]2 [A,,A,] [A,,A,]2 [A,,A,] | E,3 E,3 | E,2 E, E,2 E, | [A,,A,]6 | %8
 [E,B,]2 [E,B,] [E,C]2 [E,C] | ([E,D]2 [E,C]) [E,B,]3 | [A,,C]2 [A,,C] [A,,D]2 [A,,=D] | [A,,E]6 | %12
 [A,,A,]2 [A,,A,] [A,,A,]2 [A,,A,] | E,3 E,3 | E,2 E, E,2 E, | [A,,E,]6 |] %16
V:4
 x6 | E,3 E,3 | E,2 E, E,2 E, | x6 | x6 | E,3 E,3 | E,2 E, E,2 E, | x6 | x6 | x6 | x6 | x6 | x6 | %13
 E,3 E,3 | E,2 E, E,2 E, | x6 |] %16

